src/16/panel/mintupdate-checking.svg

<svg width="16" height="16" version="1.1" xmlns="http://www.w3.org/2000/svg">
 <defs>
  <style id="current-color-scheme" type="text/css"/>
 </defs>
 <path d="m8 5c0.84039 0.00125 1.6417 0.35494 2.209 0.975l0.789-0.457-0.178 1.474 4e-3 8e-3h-4e-3l-0.121 1-2.299-0.982 0.909-0.526c-0.36292-0.31617-0.82768-0.49086-1.309-0.492-0.7138 7.321e-4 -1.3731 0.38183-1.73 1h-1.097c0.42361-1.1981 1.5562-1.9994 2.827-2zm-2.701 3.018 2.299 0.982-0.897 0.518c0.36174 0.31031 0.8224 0.48124 1.299 0.482 0.7138-7.321e-4 1.3731-0.38183 1.73-1h1.096c-0.42349 1.1978-1.5555 1.999-2.826 2-0.83446-0.001143-1.6307-0.35014-2.197-0.963l-0.803 0.463 0.18-1.49-4e-3 -0.01h4e-3z" color="#bebebe" fill="currentColor" fill-rule="evenodd"/>
 <path d="m8 1-6 2c0 3.9895-0.017497 6.0713 0.70898 7.6543 0.72698 1.5834 2.2176 2.6261 5.291 4.3457 3.0734-1.7196 4.564-2.7618 5.291-4.3457 0.72648-1.583 0.70948-3.6653 0.70898-7.6543zm0 1 5 1.7148c4.17e-4 3.4192 0.01556 5.2037-0.58984 6.5605-0.60582 1.3577-1.849 2.2507-4.4102 3.7246-2.5612-1.4739-3.8043-2.3674-4.4102-3.7246-0.6054-1.3568-0.58984-3.141-0.58984-6.5605z" color="#000000" fill="#bebebe" solid-color="#000000" stroke-width=".4913" style="isolation:auto;mix-blend-mode:normal"/>
</svg>

<svg xmlns="http://www.w3.org/2000/svg" width="16" height="16"><defs><style id="current-color-scheme" type="text/css"></style></defs><path d="M8 1C6.159 2.724 3.058 3.992 2 4.25 2 8.916 4.25 14.222 8 15c3.75-.778 6-6.084 6-10.75C12.941 3.992 9.841 2.724 8 1zm0 4a3 3 0 0 1 2.209.975l.789-.457-.178 1.474.004.008h-.004l-.121 1L8.4 7.018l.909-.526A2 2 0 0 0 8 6a2 2 0 0 0-1.73 1H5.173A3 3 0 0 1 8 5zM5.299 8.018L7.598 9l-.897.518A2 2 0 0 0 8 10a2 2 0 0 0 1.73-1h1.096A3 3 0 0 1 8 11a2.997 2.997 0 0 1-2.197-.963L5 10.5l.18-1.49L5.176 9h.004z" fill="currentColor" fill-rule="evenodd" color="#bebebe"/></svg>
